X:1
T: The Miller of Camserney
C:Archie Menzies
R:Strathspey
Q: 128
K:A
M:4/4
L:1/16
|:c2|A3E C3A F3A E3G|A3E C3c B3A B3c|A3E C3A F3A E3C|((3D2E2F2) ((3E2G2e2) cA3 A2c2|
A3E C3A F3A E3G|A3E C3c B3A B3c|A3E C3A F3A E3C|((3D2E2F2) ((3E2G2e2) cA3 A2cd|
e3c Aa3 fd3 e3d|c3e ((3c2A2c2) dB3 B2cd|e3c A=g3 fd3 e3c|((3d2c2B2) ((3G2B2e2) cA3 A2cd|
e3c A3a fd3 e3d|c3e ((3c2A2c2) dB3 B2cd|((3e2c2A2) ((3A2E2C2) ((3F2D2A2) E3C|((3D2E2F2) ((3E2G2e2) cA3 A2:|
